!!!OTL: Schlaefert dich noch?
!!!ARE: Europa, Mitteleuropa, Deutschland
!!!SCT: A0237
!!!YEM: Copyright 1995, estate of Helmut Schaffrath.
**kern
*ICvox
*Ivox
*M3/2
*k[b-]
*d:
{2d
=1
1d
2d
=2
1e
2e
=3
2.fn
4e
2d
=4
1cn}
{2cn
=5
1Fn
2Fn
=6
1cn
2cn
=7
2.d
4e
2fn
=8
1e
2r}
=9
{2.A
4B
2c#
=10
1d
2r
=11
2.A
4B
2c#
=12
1d}
==
!!!AGN: Romanze, Ballade, Lied
!! Forster II No. 66.
!!!ONB: ESAC (Essen Associative Code) Database: ALTDEU
!!!AMT: simple triple
!!!AIN: vox
!!!EED: Helmut Schaffrath
!!!EEV: 1.0
*-
